X:1
P:Brenda Stubbert's Reel
C:Jerry Holland
C:arr. Terry Traub 2-27-2004
M:4/4
L:1/8
R:reel
K:Am
|: "Am" A/A/A BA GAAB|"Am"A/A/A BA "C"edde|"G"G/G/G BA BGGB|"C"c2 BA "G"BGGB|"Am"A/A/A BA GAAB|"Am"A/A/A BA edda|"G"gedB GABd|"Em"e2 dB "Am"eA A:|
B|"Am"A/A/A a2 A/A/A g2|"Am"Aage "C"ageg|"G"G/G/G BA BGGB |"C"c2 BA "G"BGGB|"Am"A/A/A a2 A/A/A g2|"Am"Aage "C"agea|"G"gedB GABd|"E"e2 dB "Am"eA AB ||
B|"Am"A/A/A a2 A/A/A g2|"Am"Aage "C"ageg|"G"G/G/G BA BGGB |"C"c2 BA "G"BGGB|"Am"A/A/A BA GAAB|"Am"A/A/A BA edda|"G"gedB GABd|"Em"e2 dB "Am"eA A|]
